X: 2422
T: PHIL ISAAC'S
R: Clog Dance.
%R: clog, hornpipe
B: James Kerr "Merry Melodies" v.2 p.47 #422
Z: 2016 John Chambers <jc:trillian.mit.edu>
M: C
L: 1/8
K: A
(AB) |\
(3cBA (3cBA F>AE>c | d>ef>g (3(agf) (3(efg) |\
a>ec>A B>AF2 | A6 :|\
c>B |\
A2a2 c2ze | d2b2 B2zc |
d>ef>g (3(agf) (3(efg) | a>ec>A B>AF2 |\
A2a2 c2ze | d2b2 B2zc |\
d>ef>g a2e>d | (3(cBA) G>B A2 |]
